X: 1
T: Motellin H\"am\"ar\"ass\"a
T: I skymningen vid ett motell
T: Dusk at a motel
C: Konsta Jylh\"a
R: waltz
S: spillefolk.dk 2021-12-23
Z: 2021 John Chambers <jc:trillian.mit.edu>
M: 3/4
L: 1/8
K: Em	% and G
% Formatted as in the source file:
|:\
"Em"(B,2 E2 G2) | (B2 e2 f2) | "B"(^d4 c2) | B4 B2 | {c}(TB2 F2) G2 | (A2 B2 A2) | "Em"(TG2 E2 G2) | "B"F4 (TF2 |
"Em"E2 G2) F2 | (e2 f2 g2) | "Am"{fg}a4 Tg2 | (f4 e2) | "D"{c}d2 c2 A2 | (F2 d3) .c | "G"B6 | "B"B4 (TB2 |
"Am"A)c (ce) e2 | e2 ze e2 | "Em"GB (Be) e2 | e2 ze e2 | "B"(F2 G2 A2) | A2 G2 F2 | "Em"(TGF) GA B2- | "(E7)"B2 B2 B2 |
"Am"Ac (ce) e2 | e2 ze e2 | "Em"GB (Be) e2 | e2 ze e2 | "B"(F2 G2 A2) | B2 G2 F2 |1 "Em"E6- | "^fine"E2 z2 B,2 :|
[2 "Em"E6 | "D"D6 |: "G"(ba) (gf) gb | "D/f#"(ag) (fe) fa | "C/e"(g>f g2) e2 | "G"d3 B G2 | "D"(AB) (ce) dc |
"G"(B2 d2) (gf) | "A7"e2 f2 g2 | "D"{f}a6 | "G"(ba) (gf) gb | "D/f#"(ag) (fe) fa | "C"(f>f g2) e2 |
"G"d3 c B2 | "Am/c"(AB) (ce) dc | "G/b"(Bd) (gb) ag | "D"Ta2 e2 f2 | "G"g6- | "_d.C. al fine"g6 :|
